X: 454
T: Missa In duplicibus minoribus (I) Agnus
C: Giovanni Perluigi da Palestrina
L: 1/4
M: 4/2
N: Derived from Agnus_05.krn
V: 1 clef=treble
V: 2 clef=treble
V: 3 clef=treble-8
V: 4 clef=treble-8
V: 5 clef=bass
K: C
[V:1] z4A4- | 
[V:2] D6C2 | 
[V:3] z8 | 
[V:4] z8 | 
[V:5] z8 | 
[V:1] A2G2A4 | 
[V:2] D2E2F2ED | 
[V:3] z8 | 
[V:4] z8 | 
[V:5] z8 | 
[V:1] G2F2E2A2 | 
[V:2] E2D2>C2C2 | 
[V:3] z8 | 
[V:4] z4A4- | 
[V:5] z8 | 
[V:1] c2B2A2^G2 | 
[V:2] A,2B,2C2B,2 | 
[V:3] e6d2 | 
[V:4] A2G2A2B2 | 
[V:5] z8 | 
[V:1] A2G4F2 | 
[V:2] A,2E,2G,2A,2 | 
[V:3] e4d2c2 | 
[V:4] c2BAB2A2- | 
[V:5] z8 | 
[V:1] E4z4 | 
[V:2] E,4F,3G, | 
[V:3] B4A2d2- | 
[V:4] A2^G2A4 | 
[V:5] z4D,4- | 
[V:1] z8 | 
[V:2] A,B,C2B,4 | 
[V:3] d2e2f2ed | 
[V:4] z2A4G2 | 
[V:5] D,2C,2D,2E,2 | 
[V:1] z8 | 
[V:2] z8 | 
[V:3] c2>B2c2d2 | 
[V:4] A4G2F2 | 
[V:5] F,2E,D,E,2D,2- | 
[V:1] z4A4- | 
[V:2] z8 | 
[V:3] e4A4 | 
[V:4] E4FGAB | 
[V:5] D,2^C,2D,E,F,G, | 
[V:1] A2G2A2B2 | 
[V:2] E6D2 | 
[V:3] z8 | 
[V:4] c4z4 | 
[V:5] A,B,C4B,2 | 
[V:1] c2BAB2A2- | 
[V:2] E4D2C2 | 
[V:3] z8 | 
[V:4] z8 | 
[V:5] A,2E,2G,2A,2 | 
[V:1] A2^G2A4 | 
[V:2] B,2C4B,A, | 
[V:3] z4z2A2- | 
[V:4] z2e4d2 | 
[V:5] E,4F,4 | 
[V:1] z8 | 
[V:2] B,4z4 | 
[V:3] A2^G2A3G | 
[V:4] e4d2c2 | 
[V:5] E,4F,3E, | 
[V:1] z8 | 
[V:2] z4D4 | 
[V:3] F2E2D4 | 
[V:4] BAA4^G2 | 
[V:5] D,2C,2B,,4 | 
[V:1] z8 | 
[V:2] C4C2A,2 | 
[V:3] E4F4- | 
[V:4] A2>^G2ABc2- | 
[V:5] A,,4z4 | 
[V:1] A4G4 | 
[V:2] C2D2E4 | 
[V:3] F4E4 | 
[V:4] c2BAB4 | 
[V:5] z8 | 
[V:1] G2C2E2F2 | 
[V:2] E6DC | 
[V:3] z8 | 
[V:4] c2A2c4- | 
[V:5] z4A,4 | 
[V:1] G3F/ E/D2E2- | 
[V:2] D4G4- | 
[V:3] z8 | 
[V:4] c2BAB2c2 | 
[V:5] G,4G,2C,2 | 
[V:1] E2C2G4- | 
[V:2] G2FED2E2 | 
[V:3] z8 | 
[V:4] G2A2B2c2- | 
[V:5] E,2F,2G,4- | 
[V:1] G4z4 | 
[V:2] DG,2<G2FED | 
[V:3] d4c4 | 
[V:4] c2B2edcB | 
[V:5] G,4C,2E,2 | 
[V:1] z4F4 | 
[V:2] C4z4 | 
[V:3] c2F2A2B2 | 
[V:4] A2>G2F4 | 
[V:5] F,2>E,2D,4 | 
[V:1] E4E2C2 | 
[V:2] z2CDEFG2 | 
[V:3] c2>B2cde2- | 
[V:4] G4z4 | 
[V:5] C,8 | 
[V:1] E2F2G4 | 
[V:2] C2>D2E2DC | 
[V:3] e2c4BA | 
[V:4] A4G4 | 
[V:5] z8 | 
[V:1] G4z2C2 | 
[V:2] D2E2G2A2 | 
[V:3] B2c2B2A2 | 
[V:4] G2C2E2F2 | 
[V:5] z8 | 
[V:1] E2>F2G2A2- | 
[V:2] G6FE | 
[V:3] c4B2A2 | 
[V:4] G4G2c2 | 
[V:5] C,4E,2F,2 | 
[V:1] AGG4^F2 | 
[V:2] D4z4 | 
[V:3] B4c4 | 
[V:4] B2d4c2- | 
[V:5] G,4A,4 | 
[V:1] G8- | 
[V:2] z4D4 | 
[V:3] d4z2B2- | 
[V:4] cB/ A/B2G4 | 
[V:5] G,4z2G,2- | 
[V:1] G4z4 | 
[V:2] B,2C2>B,2C2 | 
[V:3] B2G2A3G | 
[V:4] z8 | 
[V:5] G,2E,2F,3E, | 
[V:1] z8 | 
[V:2] D2E2F2E2- | 
[V:3] A2B2c4 | 
[V:4] z4z2c2- | 
[V:5] F,2G,2A,3G, | 
[V:1] z4z2G2- | 
[V:2] E2D2E4- | 
[V:3] A4z4 | 
[V:4] c2A2B3A | 
[V:5] F,4E,3F, | 
[V:1] G2E2F3E | 
[V:2] E4A4 | 
[V:3] z2A4D2- | 
[V:4] B2c2d3c | 
[V:5] G,2A,2D,4 | 
[V:1] F2G2A3G | 
[V:2] D4F2E2 | 
[V:3] D2d2>c2c2 | 
[V:4] _B4A4 | 
[V:5] z8 | 
[V:1] F4E4 | 
[V:2] D4G4- | 
[V:3] A2B2>G2c2- | 
[V:4] D4E3F | 
[V:5] z8 | 
[V:1] D6G2 | 
[V:2] G8 | 
[V:3] c2BABc/ d/e2 | 
[V:4] G4z4 | 
[V:5] z2G,4E,2 | 
[V:1] A2c4B2 | 
[V:2] z2A4G2 | 
[V:3] d2c2d4 | 
[V:4] z8 | 
[V:5] F,2>E,2F,2G,2 | 
[V:1] A8 | 
[V:2] F2E4D2 | 
[V:3] c4z4 | 
[V:4] z2c4A2 | 
[V:5] A,2>G,2F,4 | 
[V:1] G6^F2 | 
[V:2] E2E2D2C2- | 
[V:3] z8 | 
[V:4] B2>A2B2c2 | 
[V:5] E,2>F,2G,2A,2 | 
[V:1] G4z2c2- | 
[V:2] C2B,2E4 | 
[V:3] z2G4E2 | 
[V:4] d4c4 | 
[V:5] G,4C,4 | 
[V:1] c2A2d4 | 
[V:2] C2D2A,2B,2 | 
[V:3] F2>E2F2G2 | 
[V:4] A2>G2F2D2 | 
[V:5] z2D,4B,,2 | 
[V:1] c8 | 
[V:2] C2A,B,CDE2- | 
[V:3] A6G2 | 
[V:4] E8 | 
[V:5] A,,6C,2 | 
[V:1] A6B2 | 
[V:2] E2DCD4 | 
[V:3] F8 | 
[V:4] A4A4- | 
[V:5] D,8 | 
[V:1] c2>B2A4 | 
[V:2] E8- | 
[V:3] E8- | 
[V:4] A2B2c4 | 
[V:5] A,,8 | 
[V:1] ^G8- | 
[V:2] E4-E4- | 
[V:3] E4-E4- | 
[V:4] B8- | 
[V:5] E,8- | 
[V:1] G8 |]  
[V:2] E8 |]  
[V:3] E8 |]  
[V:4] B8 |]  
[V:5] E,8 |]  

